X:1
T:Ie ny sçauroys chanter ne rire
T:M.Gascongne
T:Ie ny sçauroys chanter ne rire
C:M.Gascongne
%%score [ 1 2 3 4 ]
L:1/8
Q:1/4=120
M:2/2
K:F
V:1 treble nm="Soprano" snm="S"
V:2 treble-8 nm="Alto" snm="A"
V:3 treble-8 nm="Tenor" snm="T"
V:4 bass nm="Bass" snm="B"
V:1
 z4 z2 F2 | G4 A4 | F4 z2 F2 | G4 A4 | F4 z2 B2 | BAGF G2 A2- | AG G4 F2 | G8 | A4 A2 A2 | A6 B2 | %10
w: Ie|ny sçau-|roys, ie|ny sçau-|roys chan-|ter _ _ _ _ ne|_ _ ri- *|re,|Tous mes plai-|sirs ne|
 A2 GF G2 G2 | F2 A2 A2 A2 | A6 B2 | A2 GF G2 G2 | F8 | z8 | z8 | z8 | z8 | A4 A2 A2 | A6 B2 | %21
w: sont _ _ _ que|pleurs, Tous mes plai-|sirs ne|sont _ _ _ que|pleurs,|||||Puis que suys|loing de|
 A2 GF G2 G2 | F4 z2 F2 | G4 A4 | F4 z2 F2 | G4 A4 | F4 z2 B2 | BAGF G2 A2- | AG G4 F2 | G8 | %30
w: mes _ _ _ a-|mours: Ve-|la pour-|quoy, ve-|la pour-|quoy mon|po- * * * vre cueur|_ sou- spi- *|re.|
 z4 z2 F2 | G2 G2 A2 A2 | F2 F2 z2 F2 | G2 G2 A2 A2 | F2 F2 z4 | z8 | z8 | z2 F2 G2 G2 | %38
w: M'a-|mour et m'a- mi-|et- te, Ma|gen- te go- di-|net- te,|||Sou- vent ie|
 A2 A2 F2 F2 | z4 z2 F2 | G2 G2 A2 A2 | F2 F2 z4 | B4 A2 G2- | G2 F4 E2 | F8 | z2 F2 G2 G2 | %46
w: vous sou- hai- te|En|ma cham- bre se-|cret- te|Pour mieulx iou-|* yr de|vous,|Sou- vent ie|
 A2 A2 F2 F2 | z4 z2 F2 | G2 G2 A2 A2 | F2 F2 z4 | B4 A2 G2- | GF F4 E2 | F4 z4 | B4 A2 G2- | %54
w: vous sou- hai- te|En|ma cham- bre se-|cret- te|Pour mieulx iou-|* * yr de|vous,|Pour mieulx iou-|
 GF F4 E2 | F8 |] %56
w: * * yr de|vous.|
V:2
 z2 c2 d4 | e4 c4 | z4 z2 c2 | d2 e2 c2 c2 | B2 A2 GABc | d2 e3 dcB | c4 d2 f2- | f2 ed e4 | %8
w: Ie ny|sçau- roys,|ie|ny sçau- roys chan-|ter ne ri- * * *|||* * * re,|
 z2 f2 d3 e | f2 c2 d2 Bc | de f4 e2 | f4 z2 f2 | f3 e f2 g2- | gf f4 e2 | f2 c2 d2 d2 | %15
w: Tous mes plai-|sirs ne sont _ _|_ _ _ que|pleurs, Tous|mes plai- sirs ne|_ _ sont que|pleurs, Puis que suys|
 cBAG F2 f2 | f2 e2 f4 | z8 | z2 c2 d2 d2 | cBAG F2 f2 | f2 ed c2 e2- | e2 d4 c2 | d4 z2 d2- | %23
w: loing _ _ _ _ de|mes a- mours,||Puis que suys|loing _ _ _ _ de|mes _ _ _ a-||mours: Ve-|
 d2 e2 f4 | d4 z2 d2- | d2 e2 f4 | d3 e f2 g2 | gfed e2 f2 | e2 c2 d4 | B4 z2 G2 | A3 A B2 A2 | %31
w: * la pour-|quoy, ve-|* la pour-|quoy _ _ mon|po- * * * vre cueur|sou- * spi-|re. M'a-|mour et m'a- mi-|
 G4 F2 A2 | A3 A B2 A2 | G4 F2 f2 | fedc d2 e2- | ed d4 c2 | d4 z2 f2 | f2 f2 e2 e2 | f2 f2 z4 | %39
w: et- te, Ma|gen- te go- di-|net- te, Ma|da- * * * * me|_ _ par a-|mours, Sou-|vent ie vous sou-|hai- te|
 z2 f2 f2 f2 | e2 e2 f2 f2 | z4 f4 | e2 d3 c c2- | c2 B2 c4- | c4 z2 f2 | f2 f2 e2 e2 | f2 f2 z4 | %47
w: En ma cham-|bre se- cret- te|Pour|mieulx iou- * yr|_ de vous,|_ Sou-|vent ie vous sou-|hai- te|
 z2 f2 f2 f2 | e2 e2 f2 f2 | z4 f4 | e2 d3 c c2- | c2 B2 c4- | c4 f4 | e2 d3 c c2- | c2 B2 c4 | %55
w: En ma cham-|bre se- cret- te|Pour|mieulx iou- * yr|_ de vous,|_ Pour|mieulx iou- * yr|_ _ de|
 c8 |] %56
w: vous.|
V:3
 z2 F2 B3 A | G4 z4 | z2 F2 B2 A2 | G4 F4 | z2 c2 d3 c | B2 c2 cBAG | F2 G2 A2 B2 | c3 B c4 | %8
w: Ie ny sçau-|roys,|ie ny sçau-|roys _|ie ny sçau-|roys chan- ter _ _ _|_ ne _ _|ri- * *|
 F4 z4 | z8 | z8 | z2 c2 d2 d2 | c3 B A2 G2 | A3 B c4 | A4 z4 | A4 A2 A2 | A6 B2 | A2 GF G4 | %18
w: re,|||Tous mes plai-|sirs _ _ ne|sont _ que|pleurs,|Puis que suys|loing de|mes _ _ a-|
 F4 z4 | z2 c2 d2 d2 | c3 B A2 G2 | A2 B2 G4 | A4 z2 A2 | B4 c4 | B4 z2 A2 | B4 c4 | B4 z2 d2 | %27
w: mours,|Puis que suys|loing _ _ de|mes _ a-|mours: Ve-|la pour-|quoy, ve-|la pour-|quoy mon|
 dcBA B2 c2 | B2 G2 A4 | G4 z2 c2 | c2 c2 d3 c | B4 A2 c2 | c2 c2 d3 c | B4 A4 | z2 A2 A2 B2- | %35
w: po- * * * vre cueur|sou- * spi-|re. M'a-|mour et m'a- mi-|et- te, Ma|gen- te go- di-|net- te,|Ma da- me|
 BA A4 G2 | A8 | z4 z2 c2 | c2 c2 d2 d2 | c2 c2 z4 | z2 c2 c2 c2 | d2 d2 c2 c2- | c2 B2 c2 c2 | %43
w: _ _ par a-|mours,|Sou-|vent ie vous sou-|hai- te|En ma cham-|bre se- cret- te|_ Pour mieulx iou-|
 F4 G4 | F8 | z4 z2 c2 | c2 c2 d2 d2 | c2 c2 z4 | z2 c2 c2 c2 | d2 d2 c2 c2- | c2 B2 c2 c2 | %51
w: yr de|vous,|Sou-|vent ie vous sou-|hai- te|En ma cham-|bre se- cret- te|_ Pour mieulx iou-|
 F4 G4 | F3 G AB c2- | c2 B2 c2 c2 | F4 G4 | F8 |] %56
w: yr de|vous, _ _ _ _|_ Pour mieulx iou-|yr de|vous.|
V:4
 z8 | z2 C,2 F,3 E, | D,4 z4 | z2 C,2 F,3 E, | D,2 F,2 B,3 A, | G,2 C,4 F,2- | F,2 E,2 D,4 | C,8 | %8
w: |Ie ny sçau-|roys,|ie ny sçau-|roys ie ny sçau-|roys chan- ter|_ ne ri-|re,|
 z8 | z8 | z8 | z2 F,2 D,3 E, | F,6 E,2 | F,2 D,2 C,4 | F,4 z4 | z2 F,2 D,3 E, | %16
w: |||Tous mes plai-|sirs ne|sont _ que|pleurs,|Puis que suys|
 F,2 C,2 D,2 B,,C, | D,E, F,4 E,2 | F,8 | z2 F,2 D,3 E, | F,6 E,2 | F,2 D,2 E,4 | D,4 z2 D,2 | %23
w: loing de mes a- *||mours,|Puis que suys|loing de|mes _ a-|mours: Ve-|
 G,4 F,4 | B,,4 z2 D,2 | G,4 F,4 | B,,2 B,2 B,A,G,F, | G,6 F,2 | G,2 E,2 D,4 | G,4 C,4 | %30
w: la pour-|quoy, ve-|la pour-|quoy mon po- * * *|vre cueur|sou- * spi-|* re.|
 z2 F,2 D,2 D,2 | _E,2 E,2 F,2 F,2 | z2 F,2 D,2 D,2 | _E,2 E,2 F,2 F,2 | z2 F,2 D,2 G,2- | %35
w: M'a- mour et|m'a- mi- et- te,|Ma gen- te|go- di- net- te,|Ma da- me|
 G,2 F,2 E,4 | D,8 | z2 F,2 C3 B, | A,2 F,2 B,3 A, | F,4 z2 F,2 | C3 B, A,2 F,2 | B,3 A, F,4 | %42
w: _ par a-|mours,|Sou- vent ie|vous sou- hai- *|te En|ma cham- bre se-|cret- * te|
 G,4 F,2 E,2 | D,4 C,4 | F,8 | z2 F,2 C3 B, | A,2 F,2 B,3 A, | F,4 z2 F,2 | C3 B, A,2 F,2 | %49
w: Pour mieulx iou-|yr de|vous,|Sou- vent ie|vous sou- hai- *|te En|ma cham- bre se-|
 B,3 A, F,4 | G,4 F,2 E,2 | D,4 C,4 | F,8 | G,4 F,2 E,2 | D,4 C,4 | F,8 |] %56
w: cret- * te|Pour mieulx iou-|yr de|vous,|Pour mieulx iou-|yr de|vous.|

